src/svg/beachball.svg

<svg height="35" viewBox="0 0 35 35" width="35" xmlns="http://www.w3.org/2000/svg" xmlns:xlink="http://www.w3.org/1999/xlink"><linearGradient id="a" x1="50%" x2="50%" y1="0%" y2="100%"><stop offset="0" stop-color="#fbb114"/><stop offset="1" stop-color="#ff9508"/></linearGradient><linearGradient id="b" x1="50%" x2="50%" y1="0%" y2="100%"><stop offset="0" stop-color="#ff645d"/><stop offset="1" stop-color="#ff4332"/></linearGradient><linearGradient id="c" x1="50%" x2="50%" y1="0%" y2="100%"><stop offset="0" stop-color="#ca70e1"/><stop offset="1" stop-color="#b452cb"/></linearGradient><linearGradient id="d" x1="50%" x2="50%" y1="0%" y2="100%"><stop offset="0" stop-color="#14adf6"/><stop offset="1" stop-color="#1191f4"/></linearGradient><linearGradient id="e" x1="50%" x2="50%" y1="0%" y2="100%"><stop offset="0" stop-color="#52cf30"/><stop offset="1" stop-color="#3bbd1c"/></linearGradient><linearGradient id="f" x1="50%" x2="50%" y1="0%" y2="100%"><stop offset="0" stop-color="#ffd305"/><stop offset="1" stop-color="#fdcf01"/></linearGradient><g fill="none" fill-rule="evenodd"><circle cx="17.5" cy="17.5" fill="#959595" r="10"/><path d="m23.0292904 9.16642192c.3031113.71732457.4707096 1.50587898.4707096 2.33357808 0 3.3137085-2.6862915 6-6 6 1.6568542-2.8697557.6736033-6.5392982-2.1961524-8.19615242-.7174334-.41421038-1.4848528-.66341672-2.2583141-.75939376 1.3413325-.66846601 2.8539912-1.04445382 4.4544665-1.04445382 2.0444045 0 3.9455201.61349277 5.5292904 1.66642192z" fill="url(#a)"/><path d="m27.4809222 18.1227924c-.4695439.6207116-1.0683751 1.1597493-1.7847698 1.57336-2.8697557 1.6568543-6.5392982.6736033-8.1961524-2.1961524 3.3137085 0 6-2.6862915 6-6 0-.8276991-.1675983-1.61625351-.4707096-2.33357808 2.694699 1.79150158 4.4707096 4.85513508 4.4707096 8.33357808 0 .2091594-.0064214.416819-.0190778.6227924z" fill="url(#b)"/><path d="m21.9544665 26.4555462c-.7734613-.0959771-1.5408807-.3451834-2.2583141-.7593938-2.8697557-1.6568542-3.8530066-5.3263967-2.1961524-8.1961524 1.6568542 2.8697557 5.3263967 3.8530067 8.1961524 2.1961524.7163947-.4136107 1.3152259-.9526484 1.7847698-1.57336-.2246901 3.6566518-2.4144724 6.7818667-5.5264557 8.3327538z" fill="url(#c)"/><path d="m11.9707096 25.8335781c-.3031113-.7173246-.4707096-1.505879-.4707096-2.3335781 0-3.3137085 2.6862915-6 6-6-1.6568542 2.8697557-.6736033 6.5392982 2.1961524 8.1961524.7174334.4142104 1.4848528.6634167 2.2583141.7593938-1.3413325.668466-2.8539912 1.0444538-4.4544665 1.0444538-2.0444045 0-3.9455201-.6134928-5.5292904-1.6664219z" fill="url(#d)"/><path d="m7.51907785 16.8772076c.46954389-.6207116 1.06837502-1.1597493 1.78476973-1.57336 2.86975572-1.6568543 6.53929822-.6736033 8.19615242 2.1961524-3.3137085 0-6 2.6862915-6 6 0 .8276991.1675983 1.6162535.4707096 2.3335781-2.69469896-1.7915016-4.4707096-4.8551351-4.4707096-8.3335781 0-.2091594.00642141-.416819.01907785-.6227924z" fill="url(#e)"/><path d="m13.0455335 8.54445382c.7734613.09597704 1.5408807.34518338 2.2583141.75939376 2.8697557 1.65685422 3.8530066 5.32639672 2.1961524 8.19615242-1.6568542-2.8697557-5.3263967-3.8530067-8.19615242-2.1961524-.71639471.4136107-1.31522584.9526484-1.78476973 1.57336.22469005-3.6566518 2.41447232-6.7818667 5.52645565-8.33275378z" fill="url(#f)"/></g></svg>

<?xml version="1.0" encoding="UTF-8" standalone="no"?>
<svg width="35px" height="35px" viewBox="0 0 35 35" version="1.1" xmlns="http://www.w3.org/2000/svg" xmlns:xlink="http://www.w3.org/1999/xlink">
    <defs>
        <linearGradient x1="50%" y1="0%" x2="50%" y2="100%" id="linearGradient-colour1">
            <stop stop-color="#FBB114" offset="0%"></stop>
            <stop stop-color="#FF9508" offset="100%"></stop>
        </linearGradient>
        <linearGradient x1="50%" y1="0%" x2="50%" y2="100%" id="linearGradient-colour2">
            <stop stop-color="#FF645D" offset="0%"></stop>
            <stop stop-color="#FF4332" offset="100%"></stop>
        </linearGradient>
        <linearGradient x1="50%" y1="0%" x2="50%" y2="100%" id="linearGradient-colour3">
            <stop stop-color="#CA70E1" offset="0%"></stop>
            <stop stop-color="#B452CB" offset="100%"></stop>
        </linearGradient>
        <linearGradient x1="50%" y1="0%" x2="50%" y2="100%" id="linearGradient-colour4">
            <stop stop-color="#14ADF6" offset="0%"></stop>
            <stop stop-color="#1191F4" offset="100%"></stop>
        </linearGradient>
        <linearGradient x1="50%" y1="0%" x2="50%" y2="100%" id="linearGradient-colour5">
            <stop stop-color="#52CF30" offset="0%"></stop>
            <stop stop-color="#3BBD1C" offset="100%"></stop>
        </linearGradient>
        <linearGradient x1="50%" y1="0%" x2="50%" y2="100%" id="linearGradient-colour6">
            <stop stop-color="#FFD305" offset="0%"></stop>
            <stop stop-color="#FDCF01" offset="100%"></stop>
        </linearGradient>
    </defs>
    <g id="Page-1" stroke="none" stroke-width="1" fill="none" fill-rule="evenodd">
        <g id="beachball">
            <g id="bg" fill="#FFFFFF" opacity="0.00999999978">
                <rect x="0" y="0" width="35" height="35"></rect>
            </g>
            <circle id="background" fill="#959595" cx="17.5" cy="17.5" r="10"></circle>
            <path d="M23.0292904,9.16642192 C23.3324017,9.88374649 23.5,10.6723009 23.5,11.5 C23.5,14.8137085 20.8137085,17.5 17.5,17.5 C19.1568542,14.6302443 18.1736033,10.9607018 15.3038476,9.30384758 C14.5864142,8.8896372 13.8189948,8.64043086 13.0455335,8.54445382 C14.386866,7.87598781 15.8995247,7.5 17.5,7.5 C19.5444045,7.5 21.4455201,8.11349277 23.0292904,9.16642192 L23.0292904,9.16642192 Z" id="orange" fill="url(#linearGradient-colour1)"></path>
            <path d="M27.4809222,18.1227924 C27.0113783,18.743504 26.4125471,19.2825417 25.6961524,19.6961524 C22.8263967,21.3530067 19.1568542,20.3697557 17.5,17.5 C20.8137085,17.5 23.5,14.8137085 23.5,11.5 C23.5,10.6723009 23.3324017,9.88374649 23.0292904,9.16642192 C25.7239894,10.9579235 27.5,14.021557 27.5,17.5 C27.5,17.7091594 27.4935786,17.916819 27.4809222,18.1227924 L27.4809222,18.1227924 Z" id="red" fill="url(#linearGradient-colour2)"></path>
            <path d="M21.9544665,26.4555462 C21.1810052,26.3595691 20.4135858,26.1103628 19.6961524,25.6961524 C16.8263967,24.0392982 15.8431458,20.3697557 17.5,17.5 C19.1568542,20.3697557 22.8263967,21.3530067 25.6961524,19.6961524 C26.4125471,19.2825417 27.0113783,18.743504 27.4809222,18.1227924 C27.2562321,21.7794442 25.0664498,24.9046591 21.9544665,26.4555462 L21.9544665,26.4555462 Z" id="purple" fill="url(#linearGradient-colour3)"></path>
            <path d="M11.9707096,25.8335781 C11.6675983,25.1162535 11.5,24.3276991 11.5,23.5 C11.5,20.1862915 14.1862915,17.5 17.5,17.5 C15.8431458,20.3697557 16.8263967,24.0392982 19.6961524,25.6961524 C20.4135858,26.1103628 21.1810052,26.3595691 21.9544665,26.4555462 C20.613134,27.1240122 19.1004753,27.5 17.5,27.5 C15.4555955,27.5 13.5544799,26.8865072 11.9707096,25.8335781 L11.9707096,25.8335781 Z" id="blue" fill="url(#linearGradient-colour4)"></path>
            <path d="M7.51907785,16.8772076 C7.98862174,16.256496 8.58745287,15.7174583 9.30384758,15.3038476 C12.1736033,13.6469933 15.8431458,14.6302443 17.5,17.5 C14.1862915,17.5 11.5,20.1862915 11.5,23.5 C11.5,24.3276991 11.6675983,25.1162535 11.9707096,25.8335781 C9.27601064,24.0420765 7.5,20.978443 7.5,17.5 C7.5,17.2908406 7.50642141,17.083181 7.51907785,16.8772076 L7.51907785,16.8772076 Z" id="green" fill="url(#linearGradient-colour5)"></path>
            <path d="M13.0455335,8.54445382 C13.8189948,8.64043086 14.5864142,8.8896372 15.3038476,9.30384758 C18.1736033,10.9607018 19.1568542,14.6302443 17.5,17.5 C15.8431458,14.6302443 12.1736033,13.6469933 9.30384758,15.3038476 C8.58745287,15.7174583 7.98862174,16.256496 7.51907785,16.8772076 C7.7437679,13.2205558 9.93355017,10.0953409 13.0455335,8.54445382 L13.0455335,8.54445382 Z" id="yellow" fill="url(#linearGradient-colour6)"></path>
        </g>
    </g>
</svg>
